X:112
T:Love and Opportunity THO4.112
M:C|
L:1/8
Z:vmp. Peter Dunk 2010/11.from a transcription by Fynn Titford-Mock 2007
B:Thompson's Compleat Collection of 200 Favourite Country Dances Volume IV.
Q:1/2=80
K:F
fcAc fcAc|fgef g2g2|fgab {b}a2 gf|efge f2f2:|\
c2 cA c2 cA|dcBA B2A2|B2 BG B2 Bd|cBAG F2F2|]
